X: 501
T: Büzürk Seyir
C: Şefik Gürmeriç
O: Turkey
F: http://compmusic.upf.edu/node/140
N: buzurk--seyir--sofyan--1--sefik_gurmeric
N: makam= buzurk
N: form= seyir
N: usul= sofyan = 4/4
M: 4/4
L: 1/16
K: C ^f   
Q: 1/4=60
%%MIDI tuningsystem comma53
c6B2 A4 ^G2A2  | B2c2 d2e2 d2cB c4  | \
w:   |   | 
z2d4e2 d4 g4  | f2g2 a2b2 a2gf e4  | 
w:   |   | 
z2e4g2 =f3e d4  | z2d4=f2 e3d c4  | z4 B2c2 d4 e2=f2  | \
w:   |   |   | 
e2d2 d2c2 c2B2 A2^G2  | 
w:   | 
A4 A2B2 c2d2 e2f2  | d2g4fe e8  | z2e4a2 g4 =f2e2  | \
w:   |   |   | 
e2d2 d2c2 d4 e2=f2  | 
w:   | 
e2d2 c2B2 A4 A2c2  | B2A2 G2^9/8F2 E4 B4  | \
w:   |   | 
A3G ^9/8F2G2 F2G2 ABAG  | 
w:   | 
G16  | |


